public/assets/images/bottom-faqs-first.svg

<svg width="1280" height="375" viewBox="0 0 1280 375" fill="none" xmlns="http://www.w3.org/2000/svg">
<path d="M451.182 305.054C695.46 326.976 974.373 302.821 1298.49 158.277L1298.49 149L-43.9999 149L-43.9999 401C16.5223 332.378 115.059 274.889 451.182 305.054Z" fill="#F1F5FD"/>
<path d="M1298.49 158.277C974.373 302.821 695.46 326.976 451.182 305.054C115.059 274.889 16.5223 332.378 -43.9999 401" stroke="white" stroke-width="3"/>
<path d="M-4.86817 186.751C-22.1107 174.984 -21.3682 130.806 -0.1038 111.503C16.7056 96.1648 31.5762 110.017 56.6149 96.1441C87.3667 79.0714 81.9836 48.6627 110.405 30.083C136.929 12.7832 173.62 11.7717 179.292 22.5479C185.212 33.7783 152.748 49.1994 128.575 98.704C111.601 133.407 120.057 141.169 103.825 158.056C83.8399 178.927 55.6455 183.015 19.5518 188.258C4.94932 190.405 -0.351305 189.827 -4.86817 186.751Z" fill="#91A0D8" fill-opacity="0.27"/>
<path d="M83.2091 2.14741C65.3426 5.57159 49.2349 15.095 37.6612 29.0767C17.8271 53.8203 31.5743 70.7078 16.3365 104.153C-1.77921 143.908 -36.7683 154.156 -32.669 162.568C-28.1142 171.93 20.2287 169.682 41.7398 141.804C59.2551 119.123 42.5058 100.771 58.075 68.3572C77.5778 27.7158 122.857 17.1173 118.737 6.12702C115.921 -1.3373 93.9336 0.188537 83.2091 2.14741Z" fill="#9289FF" fill-opacity="0.4"/>
<path d="M10.2432 171.541C9.69169 171.545 9.20411 171.183 9.04787 170.654C8.86113 169.993 9.23694 169.305 9.89281 169.106C55.6645 155.878 83.6921 136.377 93.1515 111.16C94.9337 106.102 96.2647 100.895 97.1289 95.6009C98.654 87.6354 100.241 79.3811 106.094 69.6203C116.707 51.9766 135.317 39.1824 161.428 31.5883C162.082 31.4025 162.763 31.7805 162.953 32.4344C163.138 33.0895 162.761 33.7717 162.108 33.9615C136.615 41.3697 118.479 53.7926 108.216 70.8791C102.57 80.2684 101.106 87.945 99.5608 96.0755C98.6644 101.505 97.285 106.844 95.439 112.027C85.6912 138.028 57.1277 158.024 10.5523 171.5L10.2432 171.541Z" fill="white"/>
<path d="M49.5644 148.711C4.12313 164.835 -22.7285 174.439 -21.985 184.661C-20.8696 198.46 31.3879 217.34 65.1383 198.831C85.6488 187.581 85.6901 170.038 120.164 144.29C137.534 131.312 148.895 127.302 147.945 124.731C145.941 119.322 93.126 133.225 49.5644 148.711Z" fill="#9289FF" fill-opacity="0.4"/>
<path d="M21.5625 193.524C11.8758 193.417 2.24619 192.029 -7.07396 189.397C-7.73221 189.206 -8.1242 188.534 -7.96434 187.87C-7.87729 187.552 -7.66661 187.281 -7.37902 187.119C-7.09142 186.956 -6.75062 186.914 -6.43209 187.003C16.5516 193.194 35.5183 192.389 49.9504 184.465C57.4046 180.337 62.167 175.322 67.6748 169.441C74.581 161.686 82.4025 154.791 90.969 148.907C101.279 141.926 112.531 136.437 124.389 132.604C124.699 132.501 125.038 132.525 125.33 132.672C125.622 132.82 125.842 133.078 125.941 133.389C126.146 134.032 125.796 134.72 125.155 134.936C113.524 138.709 102.483 144.093 92.3563 150.93C83.9433 156.716 76.2611 163.493 69.4762 171.113C63.8234 177.138 58.9368 182.339 51.1514 186.631C42.0354 191.395 31.8526 193.767 21.5625 193.524ZM-19.3767 158.541C-19.6535 158.535 -19.8952 158.353 -19.9755 158.089C-20.0693 157.765 -19.8855 157.427 -19.5625 157.328C-1.53599 152.145 12.1543 143.364 21.1572 131.231C30.1601 119.097 31.4817 108.033 33.1955 96.023C34.035 88.4157 35.5905 80.9038 37.8416 73.5865C46.1011 48.7438 68.0923 27.5617 103.113 10.5955C103.421 10.4598 103.783 10.5857 103.939 10.8834C104.087 11.1901 103.957 11.5581 103.65 11.706C68.9595 28.5077 47.1955 49.4636 39.0185 73.9772C36.7853 81.2198 35.2436 88.6563 34.4138 96.1876C32.7206 108.362 31.11 119.879 22.1484 131.95C13.1867 144.022 -0.916533 153.256 -19.1496 158.52L-19.3767 158.541Z" fill="white"/>
<path d="M75.6157 27.5262C75.5263 27.5459 75.4338 27.5459 75.3445 27.5262C75.1947 27.4528 75.0809 27.3195 75.0296 27.1573C74.9784 26.9952 74.9941 26.8186 75.0732 26.6687L81.8124 12.9059C81.9709 12.5837 82.3507 12.4505 82.6679 12.6058C82.965 12.7833 83.0824 13.1637 82.9391 13.4847L76.179 27.2476C76.0531 27.4371 75.8384 27.5433 75.6157 27.5262ZM63.5992 37.541C63.3002 37.5443 63.0456 37.3174 63.0054 37.0118C62.9653 36.7061 63.1521 36.4175 63.4411 36.3386L77.2711 32.5685C77.4206 32.5188 77.5836 32.5371 77.7193 32.6187C77.855 32.7004 77.9506 32.8377 77.9823 32.9964C78.0594 33.3214 77.8775 33.6521 77.5674 33.7504L63.7375 37.5206L63.5992 37.541ZM55.6689 44.541H55.4912C55.32 44.4966 55.1745 44.3892 55.0869 44.2426C54.9993 44.096 54.9768 43.9222 55.0245 43.7598L61.6912 20.0274C61.7331 19.8609 61.8441 19.7175 61.999 19.63C62.1539 19.5425 62.3395 19.5183 62.5135 19.5629C62.8622 19.6648 63.0669 20.0074 62.9801 20.3441L56.3134 44.0976C56.2192 44.3603 55.961 44.5379 55.6689 44.541ZM48.6266 56.5405C48.3855 56.5507 48.1631 56.4162 48.0685 56.203C47.9914 56.0618 47.9788 55.8962 48.0337 55.7458C48.0885 55.5953 48.2059 55.4734 48.3579 55.4091L61.1119 49.5936C61.4207 49.4626 61.7824 49.5842 61.9388 49.8715C62.0868 50.1675 61.9573 50.5226 61.6494 50.6654L48.8746 56.4809L48.6266 56.5405ZM41.4427 67.5204C41.1715 67.513 40.9454 67.2859 40.9093 66.9848L38.0033 43.2306C37.9708 42.8959 38.1834 42.5937 38.4815 42.5508C38.626 42.5212 38.775 42.5597 38.8934 42.6571C39.0118 42.7546 39.089 42.9025 39.1068 43.0658L41.9945 66.8405C42.0153 67.0047 41.9765 67.1714 41.8865 67.3031C41.7966 67.4348 41.6632 67.5206 41.5163 67.541L41.4427 67.5204ZM36.6124 79.541C36.4127 79.5397 36.2268 79.4397 36.1167 79.2742C36.0203 79.141 35.9813 78.9751 36.0084 78.8133C36.0356 78.6515 36.1266 78.5071 36.2613 78.4122L49.0245 69.6485C49.3096 69.4558 49.698 69.5293 49.8919 69.8127C50.0858 70.096 50.0118 70.482 49.7267 70.6747L36.9635 79.4179C36.8641 79.4977 36.7401 79.5412 36.6124 79.541ZM33.4102 96.5399C33.1638 96.5407 32.9421 96.3794 32.8518 96.1335L28.0852 83.5128C27.9635 83.2951 27.9728 83.0209 28.1091 82.8133C28.2454 82.6058 28.4829 82.5039 28.715 82.5534C28.9472 82.6029 29.1303 82.7945 29.1821 83.0422L33.9487 95.6629C34.0142 95.8184 34.0171 95.9959 33.9567 96.1538C33.8964 96.3116 33.778 96.4358 33.6296 96.4972C33.5609 96.5306 33.4855 96.5453 33.4102 96.5399ZM32.5882 103.54C32.3902 103.542 32.2043 103.447 32.0922 103.286C31.9184 103.009 31.9972 102.646 32.2707 102.463L46.1601 93.593C46.4293 93.4732 46.7469 93.5664 46.9061 93.8119C47.0653 94.0574 47.018 94.3809 46.795 94.5721L32.9057 103.442C32.8152 103.512 32.7025 103.546 32.5882 103.54ZM28.3861 120.541C28.088 120.539 27.8302 120.337 27.7629 120.052L25.0415 106.372C24.952 106.144 25.01 105.885 25.189 105.714C25.368 105.543 25.6334 105.494 25.8636 105.588C26.0939 105.683 26.2445 105.903 26.2464 106.148L28.9885 119.807C29.0528 120.133 28.8408 120.449 28.5107 120.521L28.3861 120.541ZM23.615 129.539C23.3871 129.534 23.1784 129.408 23.0644 129.206C22.9155 128.901 23.0334 128.531 23.3295 128.374L38.1154 120.614C38.258 120.535 38.426 120.519 38.5803 120.571C38.7345 120.622 38.8614 120.735 38.9312 120.884C39.0834 121.184 38.975 121.552 38.6865 121.717L23.9618 129.477C23.8531 129.527 23.7339 129.548 23.615 129.539Z" fill="white"/>
</svg>

<svg xmlns="http://www.w3.org/2000/svg" width="1280" height="375" fill="none"><path fill="#F1F5FD" d="M451.182 305.054c244.278 21.922 523.191-2.233 847.308-146.777V149H-44v252c60.522-68.622 159.059-126.111 495.182-95.946Z"/><path stroke="#fff" stroke-width="3" d="M1298.49 158.277C974.373 302.821 695.46 326.976 451.182 305.054 115.059 274.889 16.522 332.378-44 401"/><path fill="#91A0D8" fill-opacity=".27" d="M-4.868 186.751c-17.243-11.767-16.5-55.945 4.764-75.248 16.81-15.338 31.68-1.486 56.719-15.359 30.752-17.073 25.369-47.481 53.79-66.061 26.524-17.3 63.215-18.311 68.887-7.535 5.92 11.23-26.544 26.651-50.717 76.156-16.974 34.703-8.518 42.465-24.75 59.352-19.985 20.871-48.18 24.959-84.273 30.202-14.603 2.147-19.903 1.569-24.42-1.507Z"/><path fill="#9289FF" fill-opacity=".4" d="M83.21 2.147a78.238 78.238 0 0 0-45.549 26.93c-19.834 24.743-6.087 41.63-21.325 75.076-18.115 39.755-53.104 50.003-49.005 58.415 4.555 9.362 52.898 7.114 74.409-20.764 17.515-22.681.766-41.033 16.335-73.447 19.503-40.641 64.782-51.24 60.662-62.23-2.816-7.464-24.803-5.938-35.528-3.98Z"/><path fill="#fff" d="M10.243 171.541a1.237 1.237 0 0 1-1.195-.887 1.259 1.259 0 0 1 .845-1.548c45.771-13.228 73.8-32.729 83.258-57.946A90.874 90.874 0 0 0 97.13 95.6c1.525-7.965 3.112-16.219 8.965-25.98 10.613-17.643 29.223-30.438 55.334-38.032a1.237 1.237 0 0 1 1.525.846 1.239 1.239 0 0 1-.845 1.528c-25.493 7.408-43.629 19.83-53.892 36.917-5.646 9.39-7.11 17.066-8.655 25.197a92.41 92.41 0 0 1-4.122 15.951c-9.748 26.001-38.311 45.997-84.887 59.473l-.309.041Z"/><path fill="#9289FF" fill-opacity=".4" d="M49.564 148.711c-45.44 16.124-72.293 25.728-71.549 35.95 1.115 13.799 53.373 32.679 87.123 14.17 20.51-11.25 20.552-28.793 55.026-54.541 17.37-12.978 28.731-16.988 27.781-19.559-2.004-5.409-54.819 8.494-98.38 23.98Z"/><path fill="#fff" d="M21.563 193.524a109.838 109.838 0 0 1-28.637-4.127 1.28 1.28 0 0 1-.89-1.527 1.243 1.243 0 0 1 1.532-.867c22.984 6.191 41.95 5.386 56.382-2.538 7.455-4.128 12.217-9.143 17.725-15.024a128.964 128.964 0 0 1 23.294-20.534 132.042 132.042 0 0 1 33.42-16.303 1.218 1.218 0 0 1 1.552.785 1.237 1.237 0 0 1-.786 1.547 130.675 130.675 0 0 0-32.799 15.994 126.983 126.983 0 0 0-22.88 20.183c-5.653 6.025-10.54 11.226-18.325 15.518a60.79 60.79 0 0 1-29.589 6.893Zm-40.94-34.983a.64.64 0 0 1-.599-.452.616.616 0 0 1 .413-.761c18.027-5.183 31.717-13.964 40.72-26.097 9.003-12.134 10.325-23.198 12.039-35.208.839-7.607 2.395-15.12 4.646-22.436 8.26-24.843 30.25-46.025 65.271-62.992a.641.641 0 0 1 .826.288.616.616 0 0 1-.289.823C68.96 28.508 47.195 49.464 39.018 73.977a119.967 119.967 0 0 0-4.604 22.21c-1.693 12.175-3.304 23.692-12.266 35.763-8.961 12.072-23.065 21.306-41.298 26.57l-.227.021Z"/><path fill="#fff" d="M75.616 27.526a.63.63 0 0 1-.272 0 .616.616 0 0 1-.314-.369.637.637 0 0 1 .043-.488l6.74-13.763a.639.639 0 0 1 .855-.3.696.696 0 0 1 .271.879l-6.76 13.763a.62.62 0 0 1-.563.278ZM63.599 37.541a.599.599 0 0 1-.594-.53.611.611 0 0 1 .436-.672l13.83-3.77a.538.538 0 0 1 .448.05.57.57 0 0 1 .263.377.634.634 0 0 1-.415.754l-13.83 3.77-.138.021Zm-7.93 7h-.178a.663.663 0 0 1-.404-.298.606.606 0 0 1-.063-.483l6.667-23.733A.637.637 0 0 1 62 19.63a.697.697 0 0 1 .514-.067.65.65 0 0 1 .467.781l-6.667 23.754a.687.687 0 0 1-.644.443Zm-7.042 12a.581.581 0 0 1-.559-.338.554.554 0 0 1-.034-.457.585.585 0 0 1 .324-.337l12.754-5.815a.653.653 0 0 1 .827.277.585.585 0 0 1-.29.794l-12.774 5.816-.248.06Zm-7.184 10.98c-.271-.008-.498-.235-.534-.536L38.003 43.23c-.032-.335.18-.637.478-.68a.49.49 0 0 1 .412.106.615.615 0 0 1 .214.409l2.888 23.775a.674.674 0 0 1-.108.462.542.542 0 0 1-.37.238l-.074-.02Zm-4.83 12.02a.6.6 0 0 1-.496-.267.613.613 0 0 1 .144-.862l12.764-8.764a.627.627 0 0 1 .867.165c.194.283.12.669-.165.862l-12.763 8.743a.56.56 0 0 1-.352.123ZM33.41 96.54a.6.6 0 0 1-.558-.407l-4.767-12.62a.68.68 0 0 1 .024-.7.58.58 0 0 1 .606-.26.62.62 0 0 1 .467.49l4.767 12.62a.662.662 0 0 1 .008.49.6.6 0 0 1-.327.344.43.43 0 0 1-.22.043Zm-.822 7a.596.596 0 0 1-.496-.254.603.603 0 0 1 .179-.823l13.89-8.87a.6.6 0 0 1 .745.219.582.582 0 0 1-.111.76l-13.89 8.87a.477.477 0 0 1-.317.098Zm-4.202 17.001a.641.641 0 0 1-.623-.489l-2.722-13.68a.604.604 0 0 1 .148-.658.632.632 0 0 1 .675-.126c.23.095.38.315.382.56l2.742 13.659a.612.612 0 0 1-.477.714l-.125.02Zm-4.771 8.998a.65.65 0 0 1-.55-.333.63.63 0 0 1 .264-.832l14.786-7.76a.577.577 0 0 1 .465-.043.594.594 0 0 1 .351.313c.152.3.044.668-.244.833l-14.725 7.76a.702.702 0 0 1-.347.062Z"/></svg>
